X:1
T:Rattle the Blinds
M:6/8
L:1/8
Q:110
C:(c) Greg Anderson, 27 Dec 1999
R:Jig
N:This tune came out December 27th, 1999, the day of the biggest storm in
N:France in recent memory. We were quite sure the exterior window blinds
N:would be ripped off and carried away in the high winds
K:G
D|:GAB dBA|BAG E2 G|EGG DGG|
BAG ABd|edB AGA|BAB GED|EGA BAG|
1Eee e2 D:|2Eee efg|:a2 a bag|fed egb|
a2 b agf|e2 f edB|A2 A BAG|EDE GEE|
DGG Bee|1e2 e efg:|2e2 B AGD||
